Costumes/candle1-b.svg

<?xml version="1.0" encoding="UTF-8" standalone="no"?>
<svg
   version="1.1"
   width="21.041098"
   height="125.70664"
   id="svg7"
   sodipodi:docname="candle1-b.svg"
   xmlns:inkscape="http://www.inkscape.org/namespaces/inkscape"
   xmlns:sodipodi="http://sodipodi.sourceforge.net/DTD/sodipodi-0.dtd"
   xmlns="http://www.w3.org/2000/svg"
   xmlns:svg="http://www.w3.org/2000/svg">
  <defs
     id="defs11" />
  <sodipodi:namedview
     id="namedview9"
     pagecolor="#ffffff"
     bordercolor="#000000"
     borderopacity="0.25"
     inkscape:showpageshadow="2"
     inkscape:pageopacity="0.0"
     inkscape:pagecheckerboard="0"
     inkscape:deskcolor="#d1d1d1" />
  <!-- Exported by Scratch - http://scratch.mit.edu/ -->
  <g
     id="ID0.23448855988681316"
     transform="matrix(0.90249997,0,0,0.90249997,-0.70718476,-0.67765271)">
    <path
       id="ID0.5673541482537985"
       fill="#ffffff"
       stroke="none"
       stroke-linecap="round"
       d="m 179.25,78.5 c 14.08,-1.769 28.395,0.319 42.5,0.5 15.148,0.195 30.629,-1.941 45.5,1 3.705,0.745 0.973,-2.326 1,8.5 0.754,43.284 0.737,86.709 1,130 0.224,36.876 0.48,74.036 0.5,111 0.007,9.24 3.65,4.323 -0.5,4.5 -16.582,1.671 -33.316,0.147 -50,0 -14.974,-0.138 -29.843,1.521 -45,-0.5 -3.789,-0.505 -0.503,2.991 -0.5,-6 0.012,-35.966 0.393,-72.036 0.5,-108 0.15,-44.656 -1.617,-89.412 0,-134 0.421,-11.154 1.586,-6.375 5,-7 z"
       transform="matrix(0.23594937,0,0,0.40172413,-39.9,5.4)" />
    <path
       id="ID0.3195285517722368"
       fill="#f0eee0"
       stroke="none"
       d="M 220.5,233.5 H 230 V 334 h -9.5 z"
       transform="translate(-207.5,-195.5)" />
    <path
       id="ID0.09529179334640503"
       fill="#fff45c"
       stroke="none"
       stroke-linecap="round"
       d="m 216.75,196 c 3.257,3.11 6.408,7.082 8.5,11.5 1.094,2.301 0.807,5.054 0.75,8 -0.078,3.713 -0.005,7.59 -1.465,10.957 -1.305,2.999 -3.744,7.6 -6.785,7.543 -2.817,-0.171 -3.884,-5.102 -5,-8 -1.444,-3.762 -2.878,-7.936 -2.5,-12 0.488,-5.309 3.079,-10.912 5,-16.5 0.485,-1.075 0.675,-2.28 1.5,-1.5 z"
       transform="translate(-206,-195)" />
    <path
       id="ID0.022279370576143265"
       fill="#ff8c33"
       stroke="none"
       stroke-linecap="round"
       d="m 217.75,209.75 c 0.688,0.125 0.204,5.545 0.444,8.021 0.181,1.835 0.806,3.341 0.806,5.479 0,2.138 -0.598,3.652 -0.806,5.479 -0.176,1.575 0.651,4.834 -0.194,4.771 -1.056,0.063 -2.92,-2.959 -3.694,-4.771 -0.722,-1.693 -0.806,-3.341 -0.806,-5.479 0,-2.138 0.23,-3.727 0.806,-5.479 0.85,-2.599 2.756,-7.896 3.444,-8.021 z"
       transform="translate(-206,-195)" />
  </g>
</svg>

<svg version="1.1" width="25" height="141" xmlns="http://www.w3.org/2000/svg" xmlns:xlink="http://www.w3.org/1999/xlink">
  <!-- Exported by Scratch - http://scratch.mit.edu/ -->
  <g id="ID0.23448855988681316" transform="matrix(0.9024999737739563, 0, 0, 0.9024999737739563, 0.15, -0.15)">
    <path id="ID0.5673541482537985" fill="#FFFFFF" stroke="none" stroke-linecap="round" d="M 179.250 78.500 C 193.330 76.731 207.645 78.819 221.750 79 C 236.898 79.195 252.379 77.059 267.250 80 C 270.955 80.745 268.223 77.674 268.250 88.500 C 269.004 131.784 268.987 175.209 269.250 218.500 C 269.474 255.376 269.730 292.536 269.750 329.500 C 269.757 338.740 273.400 333.823 269.250 334 C 252.668 335.671 235.934 334.147 219.250 334 C 204.276 333.862 189.407 335.521 174.250 333.500 C 170.461 332.995 173.747 336.491 173.750 327.500 C 173.762 291.534 174.143 255.464 174.250 219.500 C 174.400 174.844 172.633 130.088 174.250 85.500 C 174.671 74.346 175.836 79.125 179.250 78.500 Z " transform="matrix(0.23594936728477478, 0, 0, 0.4017241299152374, -39.9, 5.4)"/>
    <path id="ID0.3195285517722368" fill="#F0EEE0" stroke="none" d="M 220.500 233.500 L 230 233.500 L 230 334 L 220.500 334 L 220.500 233.500 Z " transform="matrix(1, 0, 0, 1, -207.5, -195.5)"/>
    <path id="ID0.09529179334640503" fill="#FFF45C" stroke="none" stroke-linecap="round" d="M 216.750 196 C 220.007 199.110 223.158 203.082 225.250 207.500 C 226.344 209.801 226.057 212.554 226 215.500 C 225.922 219.213 225.995 223.090 224.535 226.457 C 223.230 229.456 220.791 234.057 217.750 234 C 214.933 233.829 213.866 228.898 212.750 226 C 211.306 222.238 209.872 218.064 210.250 214 C 210.738 208.691 213.329 203.088 215.250 197.500 C 215.735 196.425 215.925 195.220 216.750 196 Z " transform="matrix(1, 0, 0, 1, -206, -195)"/>
    <path id="ID0.022279370576143265" fill="#FF8C33" stroke="none" stroke-linecap="round" d="M 217.750 209.750 C 218.438 209.875 217.954 215.295 218.194 217.771 C 218.375 219.606 219 221.112 219 223.250 C 219 225.388 218.402 226.902 218.194 228.729 C 218.018 230.304 218.845 233.563 218 233.500 C 216.944 233.563 215.080 230.541 214.306 228.729 C 213.584 227.036 213.500 225.388 213.500 223.250 C 213.500 221.112 213.730 219.523 214.306 217.771 C 215.156 215.172 217.062 209.875 217.750 209.750 Z " transform="matrix(1, 0, 0, 1, -206, -195)"/>
  </g>
</svg>
